!!!COM: Scriabin, Alexander
!!!OTL@@FR: Mazurka en mi mineur
!!!OTL@@EN: Mazurka in E Minor
!!!OPR@@FR: 10 Mazurkas
!!!OPR@@EN: 10 Mazurkas
!!!OPS: 3
!!!ONM: 7
!!!OMD: Con passione
!!!ODT: 1888–1889
!!!AGN: Mazurka
**kern	**kern	**dynam
*staff2	*staff1	*staff1/2
*Ipiano	*Ipiano	*
*clefF4	*clefG2	*
*k[f#]	*k[f#]	*
*e:	*e:	*
*M3/4	*M3/4	*
=1	=1	=1
4r	8r	.
.	8eeL	p
4G 4B 4e	8dd#X	.
.	8ddn	.
4G 4B 4e	8cc#X	.
.	8ccnJ	.
=2	=2	=2
4r	8bL	<
.	[8a#J	(
*	*^	*
4F# 4c#X 4e	2a#]	4.gg	[ >
4F# 4c# 4e	.	.	)
.	.	8ff#	]
*	*v	*v	*
=3	=3	=3
4r	8r	.
.	8anL	.
4F# 4cn 4e	8b	.
.	8cc	.
4B 4d#X	8f#	.
.	8bJ	.
=4	=4	=4
4r	8aL	.
.	8gJ	.
.	8qa	.
4E 4B 4e	8.gL	.
.	16f#Jk	.
4E 4B 4e	4g	.
=5	=5	=5
4r	8r	.
.	8ccL	pp
4E 4G 4c	8b	.
.	8b-X	.
4E 4G 4c	8a	.
.	8a-XJ	.
!!LO:LB:g=original
=6	=6	=6
4r	8gL	.
.	[8f#J	.
*	*^	*
4D 4A 4c	2f#]	4.ee	.
4D 4A 4c	.	.	.
.	.	8dd	.
*	*v	*v	*
=7	=7	=7
4r	8r	.
.	8fnL	.
4D 4A-X 4c	8g	.
.	8a-X	.
4G 4B	8d	.
.	8gJ	.
=8	=8	=8
4r	8fnL	.
.	8eJ	.
.	8qf	.
*^	*	*
2C	4G 4c	8.eL	.
.	.	16d#XJk	.
.	4F#X 4A#X	4e	.
*v	*v	*	*
=9	=9	=9
*	*^	*
4BB 4F# 4B	4rA	8r	.
.	.	8eL	.
2FF# 2BB 2F#	2A 2B	8d#X	.
.	.	8dn	.
.	.	8c#X	.
.	.	8cnJ	.
=10	=10	=10	=10
4r	4r	8BL	.
.	.	8A#XJ	.
4EE 4AA#X 4E	4G	4.d	.
4EE 4AA# 4E	4G	.	.
.	.	8c	.
=11	=11	=11	=11
4FF# 4BB 4F#	4rA	8r	.
.	.	8cL	.
2DD#X 2BB 2D#X	2F#	8A#X	.
.	.	8c	.
.	.	8B	.
.	.	8AnJ	.
*	*v	*v	*
!!LO:LB:g=original
=12	=12	=12
4r	8AL	.
.	8G#XJ	.
*^	*^	*
4DDn	2GG#X	4Fn	4.c	sf
4DD	.	4F	.	.
.	.	.	8B	.
*	*	*v	*v	*
=13	=13	=13	=13
2.CC	2AA	8EL	f
.	.	8A	.
.	.	8G#X	.
.	.	8A	.
.	8GGnL	8B	.
.	8FF#J	8AJ	.
=14	=14	=14	=14
2.CC	4.FF#	8AL	.
.	.	8A#X	.
.	.	8B	>
.	4.E	8A#	.
.	.	8f#	.
.	.	8eJ	.
*v	*v	*	*
=15	=15	=15
4BBB 4BB	8BL	.
.	8b	.
2BB 2G 2e	8cc	.
.	8g	.
.	8b	.
.	8eJ	.
=16	=16	=16
*^	*	*
2.BB 2.A 2.d#X	4r	8gL	>
.	.	8c	)
.	4r	8g	)
.	.	8f#J	]
.	8r	4r	.
.	8B	.	mf
!!LO:LB:g=original
=17	=17	=17	=17
4r	[2B	8r	.
.	.	8eeL	p
4G 4e	.	8dd#X	.
.	.	8ddn	.
4G 4e	8BL]	8cc#X	.
.	8cJ	8ccnJ	.
=18	=18	=18	=18
4r	2.c#X	8bL	.
.	.	[8a#J	.
*	*	*^	*
4F# 4e	.	2a#]	4.gg	.
4F# 4e	.	.	.	.
.	.	.	8ff#	.
*	*	*v	*v	*
=19	=19	=19	=19
4r	2cn	8r	.
.	.	8anL	.
4F# 4e	.	8b	.
.	.	8cc	.
4d#X	4B	8f#	.
.	.	8bJ	.
=20	=20	=20	=20
4r	[2B	8aL	.
.	.	8gJ	.
.	.	8qa	.
4E 4e	.	8.gL	.
.	.	16f#Jk	.
4E 4e	8BL]	4g	.
.	8AJ	.	.
=21	=21	=21	=21
4r	[2G	8r	.
.	.	8ccL	.
4E 4c	.	8b	.
.	.	8b-X	.
4E 4c	8GL]	8a	.
.	8A-XJ	8a-XJ	.
!!LO:LB:g=original
=22	=22	=22	=22
4r	2.An	8gL	.
.	.	[8f#J	.
*	*	*^	*
4D 4c	.	2f#]	4.ee	.
4D 4c	.	.	.	.
.	.	.	8dd	.
*	*	*v	*v	*
=23	=23	=23	=23
4r	2A-X	8r	.
.	.	8fnL	.
4D 4c	.	8g	.
.	.	8a-X	.
4B	4G	8d	.
.	.	8gJ	.
=24	=24	=24	=24
4r	2G	8fnL	.
.	.	8eJ	.
.	.	8qf	.
*^	*	*	*
2C\	4c	.	8.eL	.
.	.	.	16d#XJk	.
.	4A#X	4F#X	4e	.
*	*v	*v	*	*
*v	*v	*	*
=25	=25	=25
*	*^	*
4BB 4F# 4B	4rA	8r	<
.	.	8eL	.
2FF# 2BB 2F#	2A 2B	8d#X	.
.	.	8dn	.
.	.	8c#X	.
.	.	8cnJ	.
=26	=26	=26	=26
4r	4r	8BL	.
.	.	8A#XJ	.
4EE 4BB 4E	4G	4.d	.
4EE 4BB 4E	4G	.	.
.	.	8c	.
!!LO:LB:g=original
=27	=27	=27	=27
4FF# 4BB 4F#	4rA	8r	.
.	.	8cL	.
2DD#X 2BB 2D#X	2F#	8A#X	.
.	.	8c	.
.	.	8B	.
.	.	8AnJ	.
=28	=28	=28	=28
4r	4r	8AL	.
.	.	8G#XJ	.
*^	*	*	*
4DDn	2GG#X	4Fn	4.c	sf
4DD	.	4F	.	.
.	.	.	8B	.
*	*	*v	*v	*
=29	=29	=29	=29
2.CC	2AA	8EL	f
.	.	8A	.
.	.	8G#X	.
.	.	8A	.
.	8GGnL	8B	.
.	8FF#J	8AJ	.
=30	=30	=30	=30
2.CC	4.FF#	8AL	.
.	.	8A#X	.
.	.	8B	.
.	4.E	8A#	.
.	.	8f#	.
.	.	8eJ	.
*v	*v	*	*
=31	=31	=31
4BBB 4BB	8BL	.
.	8b	.
2BB 2G 2e	8cc	.
.	8g	.
.	8b	.
.	8eJ	.
=32	=32	=32
*	*^	*
[4BB	4A 4d#X	8.gL	.
.	.	16f#Jk	.
2EE 2BB]	2G 2e	2e	.
!!LO:LB:g=original
=33	=33	=33	=33
4G	4r	8r	mf
.	.	8eeL	.
4BB	2e	8dd#X	.
.	.	8ddn	.
4EE	.	8cc#X	.
.	.	8ccnJ	.
=34	=34	=34	=34
4A	2.e	8bL	.
.	.	8ccJ	.
4BB	.	4.gg	.
4EE	.	.	.
.	.	8ff#	.
=35	=35	=35	=35
4A	2.d#X	8bL	.
.	.	8ccJ	.
4BB	.	4.gg	.
4EE	.	.	.
.	.	8ff#	.
=36	=36	=36	=36
*^	*	*	*
4BB	2.G	2.e	8bL	.
.	.	.	8ccJ	.
4AA#X	.	.	4.ff#	.
4EE	.	.	.	.
.	.	.	8ee	.
*v	*v	*	*	*
=37	=37	=37	=37
4G	4r	8r	.
.	.	8eeL	.
4BB	2e	8dd#X	.
.	.	8ddn	.
4EE	.	8cc#X	.
.	.	8ccnJ	.
=38	=38	=38	=38
4A	2.e	8bL	.
.	.	8ccJ	.
4BB	.	4.gg	.
4EE	.	.	.
.	.	8ff#	.
!!LO:LB:g=original
=39	=39	=39	=39
4A	2.d#X	8bL	.
.	.	8ccJ	.
4BB	.	4.gg	.
4EE	.	.	.
.	.	8ff#	.
=40	=40	=40	=40
4G	2.e 2.b	8bL	.
.	.	8ff#J	.
4BB	.	2ee	.
4EE	.	.	.
=41	=41	=41	=41
16%3d	4r	8r	f
.	.	8bbL	.
16%3G#X	.	.	.
.	2b	8aa#X	.
16%3BB	.	8aan	.
.	.	8gg#X	.
16%3EE	.	.	.
.	.	8ggnJ	.
=42	=42	=42	=42
16%3c	2.a	8ggL	.
.	.	8ffnJ	.
16%3Fn	.	.	.
.	.	4.aa	.
16%3AA	.	.	.
16%3EE	.	.	.
.	.	8ee	.
=43	=43	=43	=43
16%3c	4r	8r	.
.	.	8eeL	.
16%3A	.	.	.
.	4f#X	8dd#X	.
16%3C	.	8ddn	.
.	4a	8cc#X	.
16%3EE	.	.	.
.	.	8ccnJ	.
=44	=44	=44	=44
16%3B	2.e	8ccL	.
.	.	8eeJ	.
16%3G	.	.	.
.	.	2b	.
16%3BB	.	.	.
16%3EE	.	.	.
!!LO:LB:g=original
=45	=45	=45	=45
16%3d	4r	8r	.
.	.	8bbL	.
16%3G#X	.	.	.
.	2b	8aa#X	>
16%3BB	.	8aan	.
.	.	8gg#X	.
16%3EE	.	.	.
.	.	8ggnJ	.
=46	=46	=46	=46
16%3c	2.a	8ggL	p
.	.	8ffnJ	.
16%3Fn	.	.	.
.	.	4.ccc	.
16%3AA	.	.	.
16%3EE	.	.	.
.	.	8ee	.
*	*v	*v	*
=47	=47	=47
8cL	8r	pp
8A	8gL 8ee	.
8C	8f#X 8dd#X	.
[8EEJ	8cc 8ee	.
*	*^	*
4EE] 4BB 4A 4d#X	4b	8ff#	.
.	.	8ggJ	.
*	*v	*v	*
=48	=48	=48
4EE 4BB 4G	2.e 2.b 2.ee	.
2EEE	.	.
=49||	=49||	=49||
*k[]	*k[]	*
*^	*	*
2.CC	4.GG	4r	f
.	.	4E 4c 4e	.
.	8FF#X	.	.
.	8.GGL	4E 4c 4g	.
.	16EJk	.	.
*v	*v	*	*
=50	=50	=50
2E	4r	.
.	4A 4c 4f#X 4a	.
4D#X	4r	.
!!LO:LB:g=original
=51	=51	=51
*^	*	*
2.CC	4.GG	4r	.
.	.	4E 4c 4e	.
.	8FF#X	.	.
.	8.GGL	4E 4c 4g	.
.	16EJk	.	.
*v	*v	*	*
=52	=52	=52
2E	4r	.
.	4A 4c 4f#X 4a	.
4D#X	4r	.
=53	=53	=53
*	*^	*
4Dn	4r	4.ffn	p
4A-X 4c 4f	4cc	.	.
.	.	8ee	.
4r	4r	8.ffL	.
.	.	16aa-XJk	.
=54	=54	=54	=54
4C#X	4r	4.aa-X	.
4A-X 4B 4f	4b	.	.
.	.	8ee	.
4r	4r	8.ffL	.
.	.	16ggJk	.
*	*v	*v	*
=55	=55	=55
4D	8ggL	.
.	8aan	.
4G 4B 4f	8gg	.
.	8b	.
4r	8cc	.
.	8aJ	.
=56	=56	=56
4GG	8ddL	.
.	8g	.
4F 4B	8a	.
.	8dJ	.
4r	4g	.
!!LO:LB:g=original
=57	=57	=57
*^	*	*
2.CC	4.GG	4r	f
.	.	4E 4c 4e	.
.	8FF#X	.	.
.	8.GGL	4E 4c 4g	.
.	16EJk	.	.
*v	*v	*	*
=58	=58	=58
2E	4r	.
.	4A 4c 4f#X 4a	.
4D#X	4r	.
=59	=59	=59
*^	*	*
2.CC	4.GG	4r	.
.	.	4E 4c 4e	.
.	8FF#X	.	.
.	8.GGL	4E 4c 4g	.
.	16EJk	.	.
*v	*v	*	*
=60	=60	=60
2E	4r	.
.	4A 4c 4f#X 4a	.
4D#X	4r	.
=61	=61	=61
*	*^	*
4E	4r	4.gg	p
4G 4c 4g	4cc	.	.
.	.	8ff#X	.
4r	4r	8.ggL	.
.	.	16aaJk	.
=62	=62	=62	=62
4E-X	4r	4.aa	.
4G 4c 4g	4cc	.	.
.	.	8gg#X	.
4r	4r	8.aaL	.
.	.	16dddJk	.
!!LO:LB:g=original
=63	=63	=63	=63
4D	4r	8dddL	.
.	.	8eee	.
4c 4f#X	4dd	8ddd	.
.	.	8ee	.
4r	4r	8ff#X	.
.	.	8ddJ	.
*	*v	*v	*
=64	=64	=64
4GG	4gg	.
4D 4B 4g	4r	.
4r	4r	.
=65	=65	=65
*^	*	*
2.GG	4.D	4r	mf
.	.	4B- 4d	.
.	8C#X	.	.
.	8.GL	4B- e	.
.	16GJk	.	.
*v	*v	*	*
=66	=66	=66
4.GG 4.G	4r	.
.	8B-X 8e#X	<
8DL 8F#X	8AL 8d 8f#X	(
8DJ 8F#	8AJ 8d 8f#	(
*	*^	*
8GG 8E	8B-	8dL 8f# 8a	[
=67	=67	=67	=67
4.GG 4.E	4.B-X	8dJ 8f#X 8a	>
.	.	8enL 8g	)
.	.	8eJ 8g	]
*	*v	*v	*
8DDL 8D	8AL 8d 8f#	<
8DDJ 8D	8AJ 8d 8f#	(
*	*^	*
[8GGG [8D	8B-	8d 8f# 8a	(
=68	=68	=68	=68
4.GGG] 4.D]	4B-X	8dL 8f#X 8a	[
.	.	8eJ 8g	>
*	*v	*v	*
.	8B-L 8e 8g	)
8DD 8D	8AJ 8d 8f#	]
4DD 4D	4A 4d 4f#	.
!!LO:LB:g=original
=69	=69	=69
*^	*	*
2.D	4.A	4r	.
.	.	4fn 4a	.
.	8G#X	.	.
.	8.dL	4f 4bn	.
.	16dJk	.	.
*v	*v	*	*
=70	=70	=70
4.d	4r	.
.	8f 8b#X	<
8AL 8c#X	8eL 8a 8cc#X	(
8AJ 8c#	8eJ 8a 8cc#	(
*	*^	*
8D 8B	8f	8a 8cc# 8ee	[
=71	=71	=71	=71
4.D 4.B	4.f	8a 8cc#X 8ee	.
.	.	8bL 8dd	.
.	.	8bJ 8dd	.
*	*v	*v	*
4AA 4A	8eL 8a 8cc#	<
.	8eJ 8a 8cc#	(
*	*^	*
[8DD [8A	8f	8aL 8cc# 8ee	(
=72	=72	=72	=72
4.DD] 4.A]	4.f	8aJ 8cc#X 8ee	[ >
.	.	8bL 8dd	)
.	.	8bJ 8dd	]
*	*v	*v	*
4AA 4A	8eL 8a 8ccn	<
.	8eJ 8a 8cc	(
[8GG [8c	8f 8a 8ee	[
=73	=73	=73
*^	*^	*
2.GG]	8cL]	2d 2f	8eeL	>
.	8B	.	8dd	)
.	8B	.	8dd	)
.	8A	.	8cc	)
.	8A	[4d [4f	8cc	)
.	8GJ	.	8bJ	)
=74	=74	=74	=74	=74
2.GG	8GL	4d] 4f]	8bL	)
.	8FJ	.	8a	)
.	2F	2B	8a	)
.	.	.	8g	)
.	.	.	8g	)
.	.	.	8d#XJ	]
*	*	*v	*v	*
!!LO:LB:g=original
=75	=75	=75	=75
2.CC	4.GG	4r	f
.	.	4E 4c 4e	.
.	8FF#X	.	.
.	8.GGL	4E 4c 4g	.
.	16EJk	.	.
*v	*v	*	*
=76	=76	=76
2E	4r	.
.	4A 4c 4f#X 4a	.
4D#X	4r	.
=77	=77	=77
*^	*	*
2.CC	4.GG	4r	.
.	.	4E 4c 4e	.
.	8FF#X	.	.
.	8.GGL	4E 4c 4g	.
.	16EJk	.	.
*v	*v	*	*
=78	=78	=78
2E	4r	.
.	4A 4c 4f#X 4a	.
4D#X	4r	.
=79	=79	=79
*	*^	*
4Dn	4r	4.ffn	p
4A-X 4c 4f	4cc	.	.
.	.	8ee	.
4r	4r	8.ffL	.
.	.	16aa-XJk	.
=80	=80	=80	=80
4C#X	4r	4.aa-X	.
4A-X 4B 4f	4b	.	.
.	.	8ee	.
4r	4r	8.ffL	.
.	.	16ggJk	.
*	*v	*v	*
=81	=81	=81
4D	8ggL	.
.	8aan	.
4G 4B 4f	8gg	.
.	8b	.
4r	8cc	.
.	8aJ	.
!!LO:LB:g=original
=82	=82	=82
4GG	8ddL	.
.	8g	.
4F 4B	8a	.
.	8dJ	.
4r	4g	.
=83	=83	=83
4CC	4.e	pp
4GG 4E 4A#X	.	.
.	8d#X	.
4r	8.eL	.
.	16gJk	.
=84	=84	=84
*^	*	*
2.C	4r	4.g	.
.	2An 2e	.	.
.	.	8f#X	.
.	.	8gL	.
.	.	8AJ	.
*v	*v	*	*
=85	=85	=85
[2.BB [2.A [2.d#X	8cL	<
.	8GJ	(
.	4.G	[
.	8c	.
=86	=86	=86
*^	*	*
2.BB] 2.A] 2.d#]	4r	8cL	<
.	.	8F#XJ	(
.	4r	4F#	[
.	8r	4r	.
.	8B	.	.
*v	*v	*	*
=87||	=87||	=87||
*k[f#]	*k[f#]	*
*^	*	*
4r	[2B	8r	.
!	!	!	!LO:DY:a=1
.	.	8eeL	f
4G 4e	.	8dd#X	.
.	.	8ddn	.
4G 4e	8BL]	8cc#X	.
.	8cnJ	8ccnJ	.
!!LO:LB:g=original
=88	=88	=88	=88
4r	2.c#X	8bL	.
.	.	[8a#J	.
*	*	*^	*
4F# 4e	.	2a#]	4.gg	.
4F# 4e	.	.	.	.
.	.	.	8ff#	.
*	*	*v	*v	*
=89	=89	=89	=89
4r	2cn	8r	.
.	.	8anL	.
4F# 4e	.	8b	.
.	.	8cc	.
4d#X	4B	8f#	.
.	.	8bJ	.
=90	=90	=90	=90
4r	[2B	8aL	.
.	.	8gJ	.
.	.	8qa	.
4E 4e	.	8.gL	.
.	.	16f#Jk	.
4E 4e	8BL]	4g	.
.	8AJ	.	.
=91	=91	=91	=91
4r	[2G	8r	.
.	.	8ccL	.
4E 4c	.	8b	.
.	.	8b-X	.
4E 4c	8GL]	8a	.
.	8A-XJ	8a-XJ	.
=92	=92	=92	=92
4r	2.An	8gL	.
.	.	[8f#J	.
*	*	*^	*
4D 4c	.	2f#]	4.ee	.
4D 4c	.	.	.	.
.	.	.	8dd	.
*	*	*v	*v	*
=93	=93	=93	=93
4r	2A-X	8r	.
.	.	8fnL	.
4D 4c	.	8g	.
.	.	8a-X	.
4B	4G	8d	.
.	.	8gJ	.
!!LO:LB:g=original
=94	=94	=94	=94
4r	2G	8fnL	.
.	.	8eJ	.
.	.	8qf	.
*^	*	*	*
2C\	4c	.	8.eL	.
.	.	.	16d#XJk	.
.	4A#X	4F#X	4e	.
*	*v	*v	*	*
*v	*v	*	*
=95	=95	=95
*	*^	*
4BB 4F# 4B	4rA	8ra	.
.	.	8eL	.
2FF# 2BB 2F#	2A 2B	8d#X	.
.	.	8dn	.
.	.	8c#X	.
.	.	8cnJ	.
=96	=96	=96	=96
4r	4r	8BL	.
.	.	8A#XJ	.
4EE 4AA#X 4E	4G	4.d	.
4EE 4AA# 4E	4G	.	.
.	.	8c	.
=97	=97	=97	=97
4FF# 4BB 4F#	4rA	8ra	.
.	.	8cL	.
2DD#X 2BB 2D#X	2F#	8A#X	.
.	.	8c	.
.	.	8B	.
.	.	8AnJ	.
=98	=98	=98	=98
4r	4r	8AL	.
.	.	8G#XJ	.
*^	*	*	*
4DDn	2GG#X	4Fn	4.c	.
4DD	.	4F	.	.
.	.	.	8B	.
=99	=99	=99	=99	=99
2.CC	2AA	2.E	8EL	.
.	.	.	8A	.
.	.	.	8G#X	.
.	.	.	8A	.
.	8GGnL	.	8B	.
.	8FF#J	.	8AJ	.
*	*	*v	*v	*
!!LO:LB:g=original
=100	=100	=100	=100
2.CC	4.FF#	8AL	.
.	.	8A#X	.
.	.	8B	.
.	4.E	8A#	.
.	.	8f#	.
.	.	8eJ	.
*v	*v	*	*
=101	=101	=101
4BBB 4BB	8BL	.
.	8b	.
2BB 2G 2e	8cc	.
.	8g	.
.	8b	.
.	8eJ	.
=102	=102	=102
*^	*	*
2.BB 2.A 2.d#X	4r	8gL	.
.	.	8c	.
.	4rA	8g	.
.	.	8f#J	.
.	8rA	4r	.
.	8B	.	.
=103	=103	=103	=103
2.G	8BL	4r	.
.	8e	.	.
.	8d#X	4.b	.
.	8dn	.	.
.	8c#X	.	.
.	8cnJ	8ccn	.
=104	=104	=104	=104
2.F#	8BL	[4cc#X	.
.	8A#XJ	.	.
.	4.g	2e 2cc#] 2ee	.
.	8f#	.	.
=105	=105	=105	=105
2F# 2e	4cn	8r	.
.	.	8aL	.
.	8BL	8b	.
.	8AnJ	8ccn	.
4BB 4d#X	4A	8f#	.
.	.	8bJ	.
*v	*v	*	*
!!LO:LB:g=original
=106	=106	=106
4r	8aL	.
.	8gJ	.
*^	*	*
.	.	8qa	.
4E 4e	4.B	8.gL	.
.	.	16f#Jk	.
4E 4e	.	4g	.
.	8A	.	.
=107	=107	=107	=107
2.E	8GL	4r	.
.	8c	.	.
.	8B	4.g	.
.	8B-X	.	.
.	8A	.	.
.	8A-XJ	8a-X	.
=108	=108	=108	=108
2.D	8GL	[4an	.
.	8F#J	.	.
.	4.e	2c 2a] 2cc	.
.	8d	.	.
=109	=109	=109	=109
2D 2c	4A-X	8r	.
.	.	8fnL	.
.	8GL	8g	.
.	8FnJ	8a-X	.
4GG 4B	4F	8d	.
.	.	8gJ	.
*v	*v	*	*
=110	=110	=110
4r	8fnL	.
.	8eJ	.
*^	*	*
.	.	8qf	.
2C	4G 4c	8.eL	.
.	.	16d#XJk	.
.	4F#X 4A#X	4e	.
*v	*v	*	*
=111	=111	=111
*	*^	*
4BB 4F# 4B	4rA	8ra	.
.	.	8eL	.
2FF# 2BB 2F#	2A 2B	8d#X	.
.	.	8dn	.
.	.	8c#X	.
.	.	8cnJ	.
!!LO:LB:g=original
=112	=112	=112	=112
4r	4r	8BL	.
.	.	8A#XJ	.
*^	*	*	*
2EE	8BBL	2G	4.d	.
.	8AA#XJ	.	.	.
.	4G	.	.	.
.	.	.	8c	.
*v	*v	*	*	*
=113	=113	=113	=113
4FF# 4BB 4F#	4rA	8ra	.
.	.	8cL	.
2DD#X 2BB 2D#X	2F#	8A#X	.
.	.	8c	.
.	.	8B	.
.	.	8AnJ	.
*	*v	*v	*
=114	=114	=114
4r	8AL	.
.	8G#XJ	.
*^	*^	*
2DDn	8AAL	2Fn	4.c	.
.	8GG#XJ	.	.	.
.	4Fn	.	.	.
.	.	.	8B	.
=115	=115	=115	=115	=115
2.CC	2AA	2.E	8EL	.
.	.	.	8A	.
.	.	.	8G#X	.
.	.	.	8A	.
.	8GGnL	.	8B	.
.	8FF#XJ	.	8AJ	.
*	*	*v	*v	*
=116	=116	=116	=116
2.CC	4.FF#	8AL	.
.	.	8A#X	.
.	.	8B	.
.	4.E	8A#	.
.	.	8f#	.
.	.	8eJ	.
*v	*v	*	*
=117	=117	=117
4BBB 4BB	8BL	.
.	8b	.
2BB 2G 2e	8cc	.
.	8g	.
.	8b	.
.	8eJ	.
!!LO:LB:g=original
=118	=118	=118
*	*^	*
[4BB	4A 4d#X	8.gL	.
.	.	16f#Jk	.
2EE 2BB]	2G 2e	2e	.
=119	=119	=119	=119
4G	4r	8r	.
.	.	8eeL	.
4BB	2e	8dd#X	.
.	.	8ddn	.
4EE	.	8cc#X	.
.	.	8ccnJ	.
=120	=120	=120	=120
4A	2.e	8bL	.
.	.	8ccJ	.
4BB	.	4.gg	.
4EE	.	.	.
.	.	8ff#	.
=121	=121	=121	=121
4A	2.d#X	8bL	.
.	.	8ccJ	.
4BB	.	4.gg	.
4EE	.	.	.
.	.	8ff#	.
=122	=122	=122	=122
*^	*	*	*
4BB	2.G	2.e	8bL	.
.	.	.	8ccJ	.
4AA#X	.	.	4.ff#	.
4EE	.	.	.	.
.	.	.	8ee	.
*v	*v	*	*	*
=123	=123	=123	=123
4G	4r	8r	.
.	.	8eeL	.
4BB	2e	8dd#X	.
.	.	8ddn	.
4EE	.	8cc#X	.
.	.	8ccnJ	.
=124	=124	=124	=124
4A	2.e	8bL	.
.	.	8ccJ	.
4BB	.	4.gg	.
4EE	.	.	.
.	.	8ff#	.
!!LO:LB:g=original
=125	=125	=125	=125
4A	2.d#X	8bL	.
.	.	8ccJ	.
4BB	.	4.gg	.
4EE	.	.	.
.	.	8ff#	.
=126	=126	=126	=126
4G	2.e 2.b	8bL	.
.	.	8ff#J	.
4BB	.	2ee	.
4EE	.	.	.
=127	=127	=127	=127
16%3d	4r	8r	.
.	.	8bbL	.
16%3G#X	.	.	.
.	2b	8aa#X	.
16%3BB	.	8aan	.
.	.	8gg#X	.
16%3EE	.	.	.
.	.	8ggnJ	.
=128	=128	=128	=128
16%3c	2.a	8ggL	.
.	.	8ffnJ	.
16%3Fn	.	.	.
.	.	4.aa	.
16%3AA	.	.	.
16%3EE	.	.	.
.	.	8ee	.
=129	=129	=129	=129
16%3c	4r	8r	.
.	.	8eeL	.
16%3A	.	.	.
.	4f#X	8dd#X	.
16%3C	.	8ddn	.
.	4a	8cc#X	.
16%3EE	.	.	.
.	.	8ccnJ	.
=130	=130	=130	=130
16%3B	2.e	8ccL	.
.	.	8eeJ	.
16%3G	.	.	.
.	.	2b	.
16%3BB	.	.	.
16%3EE	.	.	.
!!LO:LB:g=original
=131	=131	=131	=131
16%3d	4r	8r	.
.	.	8bbL	.
16%3G#X	.	.	.
.	2b	8aa#X	.
16%3BB	.	8aan	.
.	.	8gg#X	.
16%3EE	.	.	.
.	.	8ggnJ	.
=132	=132	=132	=132
16%3c	2.a	8ggL	.
.	.	8ffnJ	.
16%3Fn	.	.	.
.	.	4.ccc	.
16%3AA	.	.	.
16%3EE	.	.	.
.	.	8ee	.
=133	=133	=133	=133
16%3c	4r	8r	.
.	.	8eeL	.
16%3A	.	.	.
.	4f#X	8dd#X	.
16%3C	.	8ddn	.
.	4a	8cc#X	.
16%3EE	.	.	.
.	.	8ccnJ	.
*	*v	*v	*
=134	=134	=134
2.E 2.A 2.d#X	8cL 8b	.
.	8f# 8a#X	.
.	8c 8an	.
.	8f# 8g#X	.
.	8c 8gn	.
.	8d#XJ 8f#	.
=135	=135	=135
*^	*	*
2.EE 2.C	4Fn	8AL 8fn	.
.	.	8c 8e	.
.	2F#X	8A 8d#X	.
.	.	8c 8dn	.
.	.	8A 8d#X	.
.	.	8cJ 8e	.
=136	=136	=136	=136
2.EE 2.C	4Fn	8AL 8fn	.
.	.	8c 8e	.
.	2F#X	8A 8d#X	.
.	.	8c 8dn	.
.	.	8A 8d#X	.
.	.	8cJ 8e	.
!!LO:LB:g=original
=137	=137	=137	=137
[2.AAA [2.EE	2.C	8EL 8e	.
.	.	8A 8d#X	.
.	.	8E 8dn	.
.	.	8A 8c#X	.
.	.	8E 8cn	.
.	.	8AJ 8B	.
=138	=138	=138	=138
2.AAA] 2.EE]	8CL	8B-XL	.
.	8E	8A	.
.	8C	8G#X	.
.	8EJ	8AJ	.
.	4r	4r	.
*v	*v	*	*
=139	=139	=139
4E 4B 4e	4g#X 4b 4gg#X	pp
2E 2B 2f#	2a 2dd#X 2bb	.
=140	=140	=140
4E 4B 4e	8.g#XL 8.b 8.gg#X	.
.	16cccJk	.
2E 2B 2f#	2a 2dd#X 2bb	.
=141	=141	=141
4E 4B 4e	4g#X 4b 4gg#X	.
4E 4B 4f#	4a 4dd#X 4bb	.
4E 4B 4e	4g# 4b 4gg#	<
=142	=142	=142
4E 4B 4f#	4a 4dd#X 4bb	.
4E 4B 4e	4g#X 4b 4gg#X	.
4E 4B 4f#	4a 4dd# 4bb	.
=143	=143	=143
4EE 4BB	4r	f
4G#X 4e 4b	4ee 4bb 4eee	.
4r	4r	.
==	==	==
*-	*-	*-
!!!system-decoration: {(*)}
!!!filter: flipper -a
!!!RDF**dynam: > = dim.
!!!ENC: Bryan Jacob Bell
!!!END: November 2021 to April 2022
!!!PED: Günter Philipp
!!!PTL: Ausgewählte Klavierwerke (Edition Peters)
!!!URL-pdf: https://github.com/bel28kent/Mysterium/blob/main/reference_editions/op03.pdf
